Source/HTML/PIC/reload.svg

<svg width="18" height="18" viewBox="0 0 18 18" fill="none" xmlns="http://www.w3.org/2000/svg">
<path d="M2.27602 7.97696C2.35936 8.0103 2.45603 8.0103 2.53937 7.9703L5.14285 6.7869C5.30951 6.70689 5.37952 6.50688 5.29951 6.34022C5.22285 6.18021 5.03284 6.10686 4.86949 6.18021L3.04606 7.01025C3.9161 4.40678 6.33956 2.66669 9.1297 2.66669C12.0532 2.66669 14.61 4.62013 15.3467 7.41693C15.3933 7.59359 15.5767 7.70029 15.7533 7.6536C15.93 7.60694 16.0367 7.42358 15.99 7.24692C15.1766 4.16011 12.3565 2 9.12967 2C6.05286 2 3.37604 3.9201 2.40934 6.79358L1.64264 4.87683C1.58598 4.70348 1.39597 4.60682 1.22262 4.66348C1.04927 4.72014 0.952607 4.91015 1.00927 5.0835C1.01259 5.09678 1.0192 5.11003 1.02583 5.12331L2.08932 7.79029C2.12267 7.87364 2.18933 7.94364 2.27602 7.97696Z" fill="#445368"/>
<path d="M16.9868 12.8975C16.9834 12.8908 16.9801 12.8841 16.9801 12.8775L15.9167 10.2107C15.8834 10.1274 15.8167 10.0573 15.7301 10.024C15.6467 9.99069 15.55 9.99403 15.4667 10.0307L12.8632 11.2141C12.6932 11.2841 12.6132 11.4808 12.6832 11.6508C12.7532 11.8208 12.9499 11.9008 13.1199 11.8308L13.1399 11.8208L14.9633 10.9907C14.0866 13.5942 11.6598 15.3343 8.87301 15.3343C5.94951 15.3343 3.39272 13.3809 2.65603 10.5841C2.60937 10.4074 2.42602 10.3007 2.24935 10.3474C2.07269 10.3941 1.96599 10.5774 2.01268 10.7541C2.82272 13.8442 5.64622 16.001 8.87304 16.001C11.9499 16.001 14.6233 14.0809 15.5934 11.2074L16.3601 13.1242C16.4234 13.2975 16.6134 13.3875 16.7868 13.3242C16.9601 13.2609 17.0501 13.0708 16.9868 12.8975Z" fill="#445368"/>
</svg>

<svg width="18" height="18" fill="none" xmlns="http://www.w3.org/2000/svg"><path d="M2.276 7.977a.33.33 0 00.263-.007l2.604-1.183A.335.335 0 005.3 6.34c-.077-.16-.267-.233-.43-.16l-1.824.83c.87-2.603 3.294-4.343 6.084-4.343 2.923 0 5.48 1.953 6.217 4.75.046.177.23.283.406.237a.334.334 0 00.237-.407C15.177 4.16 12.357 2 9.13 2 6.053 2 3.376 3.92 2.41 6.794l-.767-1.917a.335.335 0 00-.42-.214.335.335 0 00-.197.46L2.089 7.79c.034.084.1.154.187.187zM16.987 12.898a.047.047 0 01-.007-.02l-1.063-2.667a.332.332 0 00-.45-.18l-2.604 1.183a.335.335 0 00.257.617l.02-.01 1.823-.83c-.876 2.603-3.303 4.343-6.09 4.343-2.923 0-5.48-1.953-6.217-4.75a.334.334 0 00-.407-.237.334.334 0 00-.236.407c.81 3.09 3.633 5.247 6.86 5.247 3.077 0 5.75-1.92 6.72-4.794l.767 1.917a.333.333 0 10.627-.226z" fill="#445368"/></svg>
